X: 12637
T: Farm Hill Lasses
R: reel
M: 4/4
K: Gmajor
|:GG (3BAG dG (3BAG|dG (3BAG edBd|GG (3BAG dG (3BAG|egdB cBAB:|
ggbg ageg|dGBd edBd|ggbg ageg|d2BG ABcd|
ggbg ageg|dGBd edBg|bgaf gfeg|d2BG AcBA||

